X: 1185
T: Kadehinde Zehir Olsa
C: Erol Sayan
O: Turkey
F: http://compmusic.upf.edu/node/140
N: muhayyerkurdi--sarki--nimsofyan--kadehinde_zehir--erol_sayan
N: makam= muhayyerkurdi
N: form= sarki
N: usul= nimsofyan = 2/4
M: 2/4
L: 1/16
K: C _B   
Q: 1/4=66
%%MIDI tuningsystem comma53
d2dd d/e/d/c/.d2  | dc/d/cd eec2  | e2ee e/f/e/d/e2  | 
w:  ARANAĞME  |   |   | 
ed/e/de fed2  | aa2a .a2z2  | z2dd ec2z  | \
w:   |   |   | 
zc2_2/4B dc_B2  | 
w:   | 
z2Ac BAz2  | d2dd d/e/d/c/.d2  | dc/d/cd eec2  | 
w:   |  ARANAĞME  |   | 
e2ee e/f/e/d/e2  | ed/e/de fed2  | aa2a .a2z2  | 
w:   |   |   | 
z2dd ec2z  | zc2_2/4B dc_B2  | z2Ac BAz2  | \
w:   |   |   | 
z2ga a3a  | 
w:  Ka de hin de   | 
ab2a g^3/4fg2  | z2ab c'.a2z  | gazf e4  | \
w:  ze hir  *  ol *  sa    |  Ben_ i çe rim   |  ba na  ge tir    | 
z2ga a3a  | 
w:  Ka de hin de   | 
ab2a g^3/4fg2  | z2ab c'.a2z  | gc'zb a4  | \
w:  ze hir  *  ol *  sa    |  Ben_ i çe rim   |  ba na  ge tir    | 
ab2g f2a2  | 
w:  Du dak la rın   | 
ef2e fe.d2  | c2cd B4  | ABzc A4  | ab2g f2a2  | \
w:  mü hür  *  ol *  sa    |  Ben_ a ça rım   |  ba na  ge tir    |  Du dak la rın   | 
ef2e fe.d2  | 
w:  mü hür  *  ol *  sa    | 
c2cd B4  | ABzc A4  | zd2d dd2z  | z2cd ecz2  | 
w:  Ben_ a ça rım   |  ba na  ge tir    |  Ağ la dı ğın   |  ge ce le ri    | 
e2e2 eez2  | z2de fdz2  | aa2a .a2z2  | \
w:  Kal bin de ki   |  a cı la rı    |  Çe kin me den   | 
z2dd ec2z  | 
w:  ba na  ge tir    | 
zc2_2/4B dc_Bz  | z2Ac BA2z  | zd2d dd2z  | \
w:  Sen  tü ken *  me   |  be ni  bi tir    |  Ağ la dı ğın   | 
z2cd ecz2  | 
w:  ge ce le ri    | 
e2e2 eez2  | z2de fdz2  | aa2a .a2z2  | \
w:  Kal bin de ki   |  a cı la rı    |  Çe kin me den   | 
z2dd ec2z  | 
w:  ba na  ge tir    | 
zc2_2/4B dc_Bz  | z2Ac BA2z  | d2dd d/e/d/c/.d2  | 
w:  Sen  tü ken *  me   |  be ni  bi tir    |  ARANAĞME  | 
dc/d/cd eec2  | e2ee e/f/e/d/e2  | ed/e/de fed2  | 
w:   |   |   | 
aa2a .a2z2  | z2dd ec2z  | zc2_2/4B dc_B2  | \
w:   |   |   | 
z2Ac BAz2  | 
w:   | 
d2dd d/e/d/c/.d2  | dc/d/cd eec2  | e2ee e/f/e/d/e2  | 
w:  ARANAĞME  |   |   | 
ed/e/de fed2  | aa2a .a2z2  | z2dd ec2z  | \
w:   |   |   | 
zc2_2/4B dc_B2  | 
w:   | 
z2Ac BAz2  | zg2a aa2z  | abz2 g^3/4f.g2  | \
w:   |  Aşk  ba ğı nın   |  gü lü  ol  *  da    | 
z2ab c'a2z  | 
w:  Di ke ni ni   | 
gazf e4  | zg2a aa2z  | abz2 g^3/4f.g2  | \
w:  ba na  ba tır    |  Aşk  ba ğı nın   |  gü lü  ol  *  da    | 
z2ab c'a2z  | 
w:  Di ke ni ni   | 
gc'zb a4  | zb2g fa2z  | ze2f fed2  | zc2_2/4B dc_B2  | 
w:  ba na  ba tır    |  Bak ma  ca nım   |  yan dı ğı *  na   |  Sor ma  be nim   | 
A2B2 cA2z  | zb2g fa2z  | ze2f fed2  | zc2_2/4B dc_B2  | 
w:  ha lim  ne dir    |  Bak ma  ca nım   |  yan dı ğı *  na   |  Sor ma  be nim   | 
A2B2 cA2z  | zd2d dd2z  | z2cd ecz2  | e2e2 eez2  | 
w:  ha lim  ne dir    |  Ağ la dı ğın   |  ge ce le ri    |  Kal bin de ki   | 
z2de fdz2  | aa2a .a2z2  | z2dd ec2z  | \
w:  a cı la rı    |  Çe kin me den   |  ba na  ge tir    | 
zc2_2/4B dc_Bz  | 
w:  Sen  tü ken *  me   | 
z2Ac BA2z  | |


